Numix/scalable/mimetypes/font-x-generic-symbolic.svg

<?xml version="1.0" encoding="UTF-8" standalone="no"?>
<!-- Created with Inkscape (http://www.inkscape.org/) -->

<svg
   xmlns:dc="http://purl.org/dc/elements/1.1/"
   xmlns:cc="http://creativecommons.org/ns#"
   xmlns:rdf="http://www.w3.org/1999/02/22-rdf-syntax-ns#"
   xmlns:svg="http://www.w3.org/2000/svg"
   xmlns="http://www.w3.org/2000/svg"
   xmlns:sodipodi="http://sodipodi.sourceforge.net/DTD/sodipodi-0.dtd"
   xmlns:inkscape="http://www.inkscape.org/namespaces/inkscape"
   id="svg7384"
   height="16"
   width="16"
   version="1.1"
   inkscape:version="0.91 r"
   sodipodi:docname="font-x-generic-symbolic.svg">
  <defs
     id="defs10" />
  <sodipodi:namedview
     pagecolor="#ffffff"
     bordercolor="#666666"
     borderopacity="1"
     objecttolerance="10"
     gridtolerance="10"
     guidetolerance="10"
     inkscape:pageopacity="0"
     inkscape:pageshadow="2"
     inkscape:window-width="1920"
     inkscape:window-height="1056"
     id="namedview8"
     showgrid="true"
     inkscape:zoom="22.627417"
     inkscape:cx="21.892766"
     inkscape:cy="-1.6187135"
     inkscape:window-x="0"
     inkscape:window-y="24"
     inkscape:window-maximized="1"
     inkscape:current-layer="svg7384">
    <inkscape:grid
       type="xygrid"
       id="grid4152" />
  </sodipodi:namedview>
  <metadata
     id="metadata90">
    <rdf:RDF>
      <cc:Work
         rdf:about="">
        <dc:format>image/svg+xml</dc:format>
        <dc:type
           rdf:resource="http://purl.org/dc/dcmitype/StillImage" />
        <dc:title>Gnome Symbolic Icon Theme</dc:title>
      </cc:Work>
    </rdf:RDF>
  </metadata>
  <title
     id="title9167">Gnome Symbolic Icon Theme</title>
  <g
     style="font-style:normal;font-variant:normal;font-weight:normal;font-stretch:normal;font-size:16.22718048px;line-height:125%;font-family:Ubuntu;-inkscape-font-specification:Ubuntu;letter-spacing:-0.78323185px;word-spacing:0px;fill:#bebebe;fill-opacity:1;stroke:none;stroke-width:1px;stroke-linecap:butt;stroke-linejoin:miter;stroke-opacity:1"
     id="text4138"
     transform="matrix(0.93136021,0,0,0.93136021,0.90920148,0.91682173)">
    <path
       d="m 4.530215,11.723666 q 0.3245436,0 0.6328601,0 0.3083164,-0.01623 0.5354969,-0.04868 l 0,-1.7525351 Q 5.5038459,9.8899955 5.2279838,9.8737683 4.9521217,9.841314 4.7249412,9.841314 q -0.3083164,0 -0.6004057,0.048682 -0.2920892,0.032454 -0.5192698,0.129817 -0.2109533,0.09736 -0.3407708,0.275863 -0.1298174,0.178499 -0.1298174,0.470587 0,0.519271 0.3894523,0.74645 0.3894524,0.210953 1.0060852,0.210953 z M 4.351716,5.3301578 q 0.9411765,0 1.5578094,0.2271805 0.63286,0.2109534 1.0060852,0.6166329 0.3732251,0.3894523 0.5354969,0.9736308 0.1622718,0.5679513 0.1622718,1.2819473 l 0,4.5436097 q -0.4381339,0.09736 -1.2981744,0.227181 -0.8600406,0.129817 -1.9310345,0.129817 -0.7302231,0 -1.3306288,-0.129817 Q 2.4693631,13.070522 2.0474564,12.778433 1.6255497,12.470117 1.3983692,11.999528 1.1711887,11.512713 1.1711887,10.814944 q 0,-0.665314 0.2596349,-1.1196746 Q 1.6904584,9.2409083 2.1285923,8.9650462 2.5667262,8.6891842 3.1346775,8.5755939 3.7026288,8.4457765 4.3192617,8.4457765 q 0.7789046,0 1.3793103,0.1298174 l 0,-0.2434077 q 0,-0.5679513 -0.356998,-0.9411765 -0.3569979,-0.3894523 -1.2332657,-0.3894523 -0.5679513,0 -1.1034482,0.081136 -0.5192698,0.081136 -0.8438134,0.1947261 L 1.8851846,5.6709286 Q 2.2584098,5.5411112 2.9399513,5.4437481 3.6214929,5.3301578 4.351716,5.3301578 Z"
       style="font-style:normal;font-variant:normal;font-weight:bold;font-stretch:normal;font-family:'Ubuntu Mono';-inkscape-font-specification:'Ubuntu Mono Bold';letter-spacing:-0.78323185px;fill:#bebebe;fill-opacity:1"
       id="path4150"
       inkscape:connector-curvature="0" />
  </g>
  <g
     style="font-style:normal;font-variant:normal;font-weight:normal;font-stretch:normal;font-size:14.18439674px;line-height:125%;font-family:Ubuntu;-inkscape-font-specification:Ubuntu;letter-spacing:-0.68463349px;word-spacing:0px;fill:#bebebe;fill-opacity:1;stroke:none;stroke-width:1px;stroke-linecap:butt;stroke-linejoin:miter;stroke-opacity:1"
     id="text4142"
     transform="translate(0.8755942,0)">
    <path
       style="font-style:normal;font-variant:normal;font-weight:bold;font-stretch:normal;font-family:'Ubuntu Mono';-inkscape-font-specification:'Ubuntu Mono Bold';letter-spacing:-0.68463349px;fill:#bebebe;fill-opacity:1"
       d="m 8,4 0,9 c 0.321513,0.10402 0.718593,0.189666 1.1914062,0.255859 0.4728133,0.06619 0.9367248,0.09961 1.3906248,0.09961 0.510638,0 0.964165,-0.08143 1.361328,-0.242188 0.397164,-0.170213 0.733582,-0.406384 1.007813,-0.708984 0.274232,-0.302601 0.481203,-0.666265 0.623047,-1.091797 0.141844,-0.434988 0.221909,-0.959736 0.21289,-1.4472656 C 13.781354,9.5541179 13.730659,9.3728523 13.617188,8.9473203 13.503712,8.5217885 13.332419,8.1581239 13.105469,7.8555235 12.887975,7.5434667 12.614172,7.3072955 12.283203,7.1465391 11.952234,6.9763263 11.569754,6.8906797 11.134766,6.8906797 c -0.226951,0 -0.45469,0.023031 -0.681641,0.070312 C 10.308102,6.9851627 10.152746,7.0504626 10,7.1055235 L 10,4 Z m 2.779297,4.3945859 c 0.416075,0 0.723294,0.1651245 0.921875,0.4960938 0.208038,0.3309692 0.3125,0.7868669 0.3125,0.9315859 0,0.7375884 -0.131709,1.2641144 -0.396484,1.5761724 -0.264776,0.3026 -0.624225,0.453124 -1.078126,0.453124 -0.104019,0 -0.231512,-0.0042 -0.382812,-0.01367 -0.05378,-0.0036 -0.103829,-0.01518 -0.15625,-0.02149 l 0,-3.2538513 c 0.07182,-0.02731 0.131328,-0.062521 0.212891,-0.083984 0.189125,-0.056737 0.377281,-0.083984 0.566406,-0.083981 z"
       transform="translate(0.1244058,0)"
       id="path4147"
       inkscape:connector-curvature="0"
       sodipodi:nodetypes="ccsscscasccsccccscscsccccs" />
  </g>
</svg>

<!-- Created with Inkscape (http://www.inkscape.org/) -->
<svg xmlns="http://www.w3.org/2000/svg" viewBox="0 0 16 16">
 <g transform="matrix(0.93136021,0,0,0.93136021,0.90920148,0.91682173)" style="fill:#bebebe;fill-opacity:1;stroke:none">
  <path d="m 4.53 11.724 q 0.325 0 0.633 0 0.308 -0.016 0.535 -0.049 l 0 -1.753 q -0.195 -0.032 -0.471 -0.049 -0.276 -0.032 -0.503 -0.032 q -0.308 0 -0.6 0.049 -0.292 0.032 -0.519 0.13 -0.211 0.097 -0.341 0.276 -0.13 0.178 -0.13 0.471 0 0.519 0.389 0.746 0.389 0.211 1.01 0.211 z m -0.178 -6.394 q 0.941 0 1.558 0.227 0.633 0.211 1.01 0.617 0.373 0.389 0.535 0.974 0.162 0.568 0.162 1.282 l 0 4.544 q -0.438 0.097 -1.298 0.227 -0.86 0.13 -1.931 0.13 -0.73 0 -1.331 -0.13 q -0.584 -0.13 -1.01 -0.422 -0.422 -0.308 -0.649 -0.779 -0.227 -0.487 -0.227 -1.185 q 0 -0.665 0.26 -1.12 q 0.26 -0.454 0.698 -0.73 0.438 -0.276 1.01 -0.389 0.568 -0.13 1.185 -0.13 q 0.779 0 1.379 0.13 l 0 -0.243 q 0 -0.568 -0.357 -0.941 -0.357 -0.389 -1.233 -0.389 -0.568 0 -1.103 0.081 -0.519 0.081 -0.844 0.195 l -0.276 -1.606 q 0.373 -0.13 1.055 -0.227 0.682 -0.114 1.412 -0.114"/>
 </g>
 <g transform="translate(0.8755942,0)" style="fill:#bebebe;fill-opacity:1;stroke:none">
  <path d="m 8 4 0 9 c 0.322 0.104 0.719 0.19 1.191 0.256 0.473 0.066 0.937 0.1 1.391 0.1 0.511 0 0.964 -0.081 1.361 -0.242 0.397 -0.17 0.734 -0.406 1.01 -0.709 0.274 -0.303 0.481 -0.666 0.623 -1.092 0.142 -0.435 0.222 -0.96 0.213 -1.447 c -0.006 -0.311 -0.056 -0.492 -0.17 -0.918 -0.113 -0.426 -0.285 -0.789 -0.512 -1.092 -0.217 -0.312 -0.491 -0.548 -0.822 -0.709 -0.331 -0.17 -0.713 -0.256 -1.148 -0.256 c -0.227 0 -0.455 0.023 -0.682 0.07 c -0.145 0.024 -0.3 0.089 -0.453 0.145 l 0 -3.106 m 0.779 4.395 c 0.416 0 0.723 0.165 0.922 0.496 0.208 0.331 0.313 0.787 0.313 0.932 0 0.738 -0.132 1.264 -0.396 1.576 -0.265 0.303 -0.624 0.453 -1.078 0.453 -0.104 0 -0.232 -0.004 -0.383 -0.014 -0.054 -0.004 -0.104 -0.015 -0.156 -0.021 l 0 -3.254 c 0.072 -0.027 0.131 -0.063 0.213 -0.084 0.189 -0.057 0.377 -0.084 0.566 -0.084 z" transform="translate(0.1244058,0)"/>
 </g>
</svg>
